X: 140
T: No_65_War_Song.krn
%%abc-version 2.0
%%abcx-abcm2ps-target-version 5.9.1 (29 Sep 2008)
%%abc-creator hum2abc beta
%%abcx-conversion-date 2020/08/10 18:54:57
%%gracespace 0 6 6
%%humdrum-veritas 1253617700
%%humdrum-veritas-data 310452895
%%linebreak <none>
%%barnumbers 0
L: 1/8
M: 2/4
%%staves {1 2}
V: 1 clef=bass
V: 2 clef=bass
K: B
[V:1] D/ [I:setbarnb 1]| 
[V:2] z/ | 
[V:1] (3DCC B,/A,3/ ||  
[V:2] (3!accent!G,, z G,, (3!accent!G,, z G,, ||  
[V:1] [M:3/4](3B,A,A,G,3E, ||  
[V:2] [M:3/4](3:2:9!accent!G,, z G,, !accent!G,, z G,, !accent!G,, z G,, ||  
[V:1] [M:2/4]G,2G,G, | 
[V:2] [M:2/4]z4 | 
[V:1] G,2G,2 | 
[V:2] z4 | 
[V:1] G,3G, ||  
[V:2] z4 ||  
[V:1] [M:3/4]G,4-G,3/A,/ ||  
[V:2] [M:3/4]z6 ||  
[V:1] [M:2/4](3A,G,G, G,/G,3/ ||  
[V:2] [M:2/4]z4 ||  
[V:1] [M:3/4](3A,G,G,G,3E, ||  
[V:2] [M:3/4]z6 ||  
[V:1] [M:2/4]G,2G,G, | 
[V:2] [M:2/4]z4 | 
[V:1] E,>D, D,3/G,/ | 
[V:2] z4 | 
[V:1] G,G, E,D, ||  
[V:2] z4 ||  
[V:1] [M:3/4](3E,D,D,D,3B,, ||  
[V:2] [M:3/4]z6 ||  
[V:1] [M:2/4]D,2D,B,, | 
[V:2] [M:2/4]z4 | 
[V:1] (3B,,A,,A,,G,,2 | 
[V:2] z4 | 
[V:1] B,,B,, B,,B,, | 
[V:2] z4 | 
[V:1] (3B,,A,,A,,G,,2 | 
[V:2] z4 | 
[V:1] G,,3G,, | 
[V:2] z4 | 
[V:1] G,,7/z/ |]  
[V:2] z4 |]  


